X: 30588
T: One For Danielle
R: jig
M: 6/8
K: Bdorian
B2A|:G2G B2c|F2F FEF|G2G GFE|FGB c2B|
G2G B2c|F2F FEF|G2G G2A|1 G2E EBA:|2 G2E E2c||
|:B2B B2G|Bce gz2|g3 g2a|g2e fec|B2B B2G|
Bce gz2|1 g3 g2a|g2e e2c:|2 c2B cGB|FEE EBA||

